X:50
T:Banks Hornpipe
C:Joe Buchanan's Scottish Tome - Page 237.0
I:237 0
Z:Carl Allison
R:Hornpipe
L:1/8
M:4/4
K:Fdor
|: ((3B,/C/D/) | E G ((3B/G/E/) D F2 ((3A/F/D/) | A, c2 d/e/ =A/B/c/B/ _A/G/F/E/ | 
G, B2 c A, c2 d/e/ | (D/E/).F/.G/ .A/.F/.D/.F/ [G,E]2 [B,G]2 [G,E]2 :| 
|:g/>f/ | gEE g/b/g/ fDD f/g/f/ | e c2 f/e/ d/c/B/=A/ {A}B{e}f | 
((3D/B/f/) ((3f/B/D/) ((3D/B/f/) ((3f/B/D/) ((3E/B/g/) ((3g/B/E/) ((3E/B/g/) ((3g/B/E/) | (=A/B/).c/.d/ .e/.c/.A/.c/ {Bc}(B/A/).B/.c/ .B/.A/.G/.F/ | 
([G,/E/]G/).B/.G/ (e/G/).F/.E/ (D/F/).B/.F/ (f/F/).E/.D/ | (C/E/).A/.E/ (c/B/).A/.G/ (.F/.G/).F/.E/ .D/.C/.B,/.A,/ | 
((3G,/E/B/) ((3B/E/G,/) ((3G,/E/B/) ((3B/E/G,/) ((3A,/E/c/) ((3c/E/A,/) | .D/.E/.F/.G/ .A/.F/.D/.F/ [G,E] [B,G][G,E]   :|

